!!!SOCIAL_FUNCTION:	songs connected with ceremonies
!!!PDT:	1929
!!!OTL: No_114_I_Am_Running_Toward_the_Edge_of_the_World.krn
!!!REG: Southwest
!!!LANG: Non-Tone
!!!LING_GROUP: Uto-Aztecan
**kern
*staff1
*clefF4
*k[f#]
*M2/4
8G\
=1
8.G\L
16d\Jk
8.d\L
16B\Jk
=2
4A;\
8.A\L
16d\Jk
=3
12d\L
12A\
12B\J
12A\L
12G\
12G\J
=4
12G\L
12E\
12G\J
12G\L
12E\
12D\J
=5
4D\
4D\
=6
4c;\
8.A\L
16E\Jk
=7
12G\L
12G\
12G\J
8.G\L
16E\Jk
=8
16G\LK
8G\
16A\Jk
4E\
=9
4D\
4D\
=10
4c;\
8.A\L
16E\Jk
=11||
*M3/4
12G\L
12G\
12G\J
8.G\L
16E\Jk
(8.A\L
16E\Jk)
=12
12G\L
12G\
12G\J
8G\L
16G\L
16G\JJ
4E;\
=13||
*M2/4
4D\
4D\
=14
4A;\
8.G\L
16E\Jk
=15
12G\L
12G\
12G\J
8.G\L
16E\Jk
=16
12G\L
12G\
12G\J
8.G\L
16G\Jk
==
*-
